src/assets/design-element.svg

<svg width="176" height="175" viewBox="0 0 176 175" fill="none" xmlns="http://www.w3.org/2000/svg">
<path fill-rule="evenodd" clip-rule="evenodd" d="M0.183594 52.9459L0.184713 52.9445V52.9459H122.796V174.999L122.795 175H0.184713V175H175.742V0.000347674H44.7693L44.7696 0H0.183594V52.9459ZM44.7693 0.000347674L0.184713 52.9445V0.000347674H44.7693ZM122.795 175L122.795 175H175.741V130.414L122.796 174.999V175H122.795Z" fill="#212121"/>
</svg>

<svg xmlns="http://www.w3.org/2000/svg" width="176" height="175" fill="none">
  <path fill="#212121" fill-rule="evenodd" d="M.184 52.946v-.002.002h122.612v122.053l-.001.001H.185h175.557V0H.184v52.946ZM44.769 0 .185 52.944V0h44.584Zm78.026 175h52.946v-44.586l-52.945 44.585V175h-.001Z" clip-rule="evenodd"/>
</svg>
